X: 1397
T: Mâhur Aranağme (Müsemmen)
C: ?
O: Turkey
F: http://compmusic.upf.edu/node/140
N: mahur--aranagme--musemmen--1--
N: makam= mahur
N: form= aranagme
N: usul= musemmen = 8/8
M: 8/8
L: 1/16
K: C ^9/8f   
Q: 1/4=144
%%MIDI tuningsystem comma53
g4 gag2 f2g2 ^f2e2  | ^f4 e2ed ^3/4ced6  | \
w:  ARANAĞME  |   | 
d4 efg2 a2b2 a2g2  | 
w:   | 
f4 d2e3/2d/ efg6  | d4 g2=f2 e2d2 c2B2  | \
w:   |   | 
c4 e2dc B^AB6  | 
w:   | 
G4 ABc2 e2d2 ^c2_7/8B2  | _7/8B4 A2AG GFG6  | \
w:   |   | 
g4 gag2 f2g2 ^f2e2  | 
w:  ARANAĞME  | 
^f4 e2ed ^3/4ced6  | d4 efg2 a2b2 a2g2  | \
w:   |   | 
f4 d2e3/2d/ efg6  | 
w:   | 
d4 g2=f2 e2d2 c2B2  | c4 e2dc B^AB6  | \
w:   |   | 
G4 ABc2 e2d2 ^c2_7/8B2  | 
w:   | 
_7/8B4 A2AG GFG6  | |


